X:1
T:Ung hu deux hu
T:Ung hu deux hu
T:Benedictus Appenzeller
C:Benedictus Appenzeller
%%score [ 1 2 3 4 ]
L:1/8
Q:1/4=120
M:2/2
K:F
V:1 treble nm="Soprano" snm="S"
V:2 treble nm="Alto" snm="A"
V:3 treble-8 nm="Tenor" snm="T"
V:4 bass nm="Bass" snm="B"
V:1
 d4 G2 d2 | G2 d2 e2 d2 | c2 B2 c2 d2- | dc B2 A4 | G4 z2 d2 |"^b" e2 d2 c2 B2 | A2 G2 z2 d2 | %7
w: Ung hu deux|hu trois hu- rons|de vil- lai- *||ge, trois|hu- rons de vil-|lai- ge, trois|
"^b" e2 d2 c2 B2 | c2 d2 z2 B2 |"^#" A2 G4 F2 | G8 | z4 z2 c2 | cc c2 A2 B2 | c2 d2 z2 d2- | %14
w: hu- rons de vil-|lai- ge,- de|vil- lai- *|ge|ont|em- me- nez ma- mie|Mar- go, ma-|
 d2 c2 B2 A2 | A2 AA A2 F2 | G2 A2 B2 AG | A4 c2 cc | c2 A2 B2 c2 | dddc d4- | d4 z2 d2 | %21
w: * mie Mar- go|ont em- me- nez ma-|mie Mar- * * *|go, ont em- me-|nez,- ont em- me-|nez ma- mie Mar- go|_ en|
"^b" e2 d2 c2 B2 | A2 G2 AF G2 | z2 F2 GE F2 | G2 AF GGGF | G8- |"^b" G8 |] %27
w: lo- rie- re d'ung|bois ma- mie Mar- go,|ma- mie Mar- go,|ma- mie Mar- go, ma- mie Mar-|go.|_|
V:2
 z8 | z2 G2 C2 G2 | C2 G2 A2 G2 | F2 G3 F2 E/F/ | G8- | G4 z4 | z2 G2 C2 G2 | C2 G2 G3 F | %8
w: |Ung vi- deux|vi trois vi- ven-|diers de guer- * *|re|_|ung vi deux|vi trois vi- ven-|
 E2 D2 F2 G2 | z4 D2 DD | D4 z4 | z8 | F2 FF F2 D2 | E2 F2 G2 D2 | E2 F2 G2 z2 | F2 FF F4 | %16
w: diers de guer- re|ont vi- tail-|lié||ont- vi- tail- lié ma-|mie Mar- go ma-|mie Mar- go|ont vi- tail- lié|
 z2 C2 D2 E2 | F4 A2 AA | A2 F2 FG A2 | A2 BA A2 A2 | B2 A2 G2 F2 | G4 z2 G2 | EF D2 D2 B,C | %23
w: ma- mie Mar-|go, ont vi- tail-|lié, ont vi- tail- lié,|ma- mie Mar- go en|lo- rie- re d'ung|bois, ma-|mie Mar- got ma- mie Mar-|
 A,4 z2 D2 | B,C A,2 G,2 DD |"^b""^b" B,B,CC B,DEE | D8 |] %27
w: got ma-|mie Mar- got ma- mie Mar-|go ma- mie Mar- got ma- mie Mar-|go.|
V:3
 z8 | z8 | z8 | d2 G2 d4 |"^b" G2 d2 e2 d2 | c2 B2 c2 d2- | dc B2 A2 G2 |"^b" z2 d2 e2 d2 | %8
w: |||Ung con deux|con trois com- pai-|gnons de guer- *|* * * * re|trois com- pai-|
 c2 B2 c2 d2- | dc B2 A4 | G2 B2 BB B2 | G2 A2 B2 c2- | cBAG F2 G2 | z2 B2 BB B2 | G2 A2 B2 c2 | %15
w: gnons de guer- *||re ont com- pai- gnié|ma- mie Mar- go|_ _ _ _ _ _|ont com- pai- gnié|ma- mie Ma- go|
 c2 cc A2 A2 | B2 A2 G4 | F2 c2 cc c2- | c2 c2 d2 e2 | ffee d4- | d4 z4 |"^b" z2 d2 e2 d2 | %22
w: ont com- pai- gnié ma-|mie Mar- *|go ont com- pai- gnié|_ ma- mie Mar-|go, ma- mie Mar- go|_|en l'o- rie-|
 c2 B2 A2 G2 | z2 d2 Bc A2 | z2 d2 Bc A2 |"^b" d2 ec dBcc |"^-natural" B8 |] %27
w: re d'ung _ bois|ma- mie Mar- go|ma- mie Mar- go|ma- mie Mar- go ma- mie Mar-|go.|
V:4
 z8 | z8 | z8 | z8 | z2 G,2 C,2 G,2 | C,2 G,2 A,2 G,2 | F,2 G,2 F,2 G,2 | z2 G,2 C,2 G,2 | %8
w: ||||Ung cu deux|cu trois cu- rés|de vil- lai- ge|ung cu deux|
 C,2 G,2 A,2 G,2 | F,2 G,2 D,2 D,2 | z4 _E,2 E,E, |"^b""^-natural" E,2 C,2 D,2 E,2 | F,4 z4 | z8 | %14
w: cu trois cu- rés|de vil- lai- ge|ont con- fes-|sé ma- mie Mar-|go||
 z4 z2 F,2 | F,F, F,2 F,2 D,2 | G,2 F,2 z4 | z2 F,2 F,F, F,2- | F,2 F,2 B,2 A,2 | D,F,G,A, D,4 | %20
w: ont|con- fes- sé ma- mie|Mar- go|ont con- fes- sé|_ ma- mie Mar-|go ma- mie Mar- go|
"^b""^b" z2 D2 E2 D2 |"^#" C2 B,2 C2 G,2 | A,F, G,2 D,2 E,C, |"^b" D,2 D,2 E,C, D,2 | %24
w: en l'o- rie-|re d'ung bois ma-|mie Mar- go ma- mie Mar-|go ma- mie Mae- go|
"^b" z2 D,2 E,C, D,2 | G,2 C,C, G,G,C,C, | G,,8 |] %27
w: ma- mie Mar- go|Ma- mie Mar- go ma- mie Mar-|go.|

